X:1
T:Title
%%score 1 { 2 | 3 }
L:1/8
Q:1/4=100
M:4/4
K:G
V:1 bass nm="Grand Piano, Treble"
V:2 bass nm="Grand Piano, Bass"
V:3 bass 
V:1
 [G,B,]>[G,B,] [G,B,]>[G,B,] [G,B,]2 [F,A,]2 | G,>[F,A,] [G,B,]>[K:treble][CE] [B,D]2 [CE]>[B,D] | %2
w: 1.~All~ a long~ the~ way~ to~|hap py~ lands~ a bove,~ We~ may~|
 [A,C]2 [CF]2 [CF]>[CE][K:bass] [B,D]>[A,C] | [G,B,]2 [B,D]2 [B,D]4 | %4
w: speak~ for~ Je sus~ words~ of~|faith~ and~ love;~|
 [G,B,]>[G,B,] [G,B,]>[G,B,] [G,B,]2 [F,A,]2 | G,>[F,A,] [G,B,]>[K:treble][CE] [B,D]2 [B,D]>[B,D] | %6
w: Tell ing~ of~ His~ kind ness~|and~ His~ ten der~ care,~ Of~ the~|
 [CE]2 [CE]2 [^CE]>[CG] [CF]>[CE] | [DF]2 [^CE]2 D4 | [G,B,]>[G,B,] D,>D, [G,B,]2 B,D | D2 C2 C4 | %10
w: price less~ bless ings~ eve ry~|soul~ may~ share.~|||
 [F,A,]>[F,A,] D,>D, [F,A,]2[K:treble] [A,C][CE] | [CE]2 [B,D]2 [B,D]4 | %12
w: ||
 [G,B,]>[G,B,] D,>D, [G,B,]2[K:treble] DG | F2 E2 E2[K:bass] [G,D]>[G,C] | %14
w: ||
 [G,B,]>[G,B,] [G,B,]2 [F,A,]>[F,A,] [A,C]>[A,C] | [G,B,]6 z2 |] %16
w: ||
V:2
 D,>D, D,>D, D,2 D,2 | D,>D, D,>G, G,2 G,>G, | F,2 A,2 A,>G, F,>D, | D,2 G,2 G,4 | %4
 D,>D, D,>D, D,2 D,2 | D,>D, D,>G, G,2 G,>G, | G,2 G,2 A,>E, A,>A, | A,2 G,2 F,4 | %8
 D,>D, B,,>B,, D,2 D,=F, | =F,2 E,2 E,4 | D,>D, D,>D, D,2 z2 | G,,8 | D,>D, B,,>B,, D,2 B,B, | %13
 D2 C2 C2 E,>E, | D,>D, D,2 D,>D, D,>D, | D,6 z2 |] %16
V:3
 G,,>G,, G,,>B,, z2 C,2 | B,,>A,, G,,>G,, G,,2 G,,>G,, | D,2 D,2 D,>D, D,2 | G,,2 G,,2 G,,4 | %4
 G,,>G,, G,,>B,, z2 C,2 | B,,>A,, G,,>G,, G,,2 G,,>G,, | C,2 C,2 A,,>A,, A,,>A,, | D,2 A,,2 D,4 | %8
 G,,>G,, G,,>G,, G,,2 z2 | C,,8 | z8 | z8 | G,,>G,, G,,>G,, G,,2 z2 | C,,4 z2 C,>C, | z8 | %15
 G,,6 z2 |] %16

